www/assets/icons/podcasts.svg

<svg xmlns="http://www.w3.org/2000/svg" width="24" height="24" viewBox="0 0 24 24" fill='currentColor'><path d="M14 12c0 .74-.4 1.38-1 1.72V22h-2v-8.28c-.6-.35-1-.98-1-1.72 0-1.1.9-2 2-2s2 .9 2 2m-2-6c-3.31 0-6 2.69-6 6 0 1.74.75 3.31 1.94 4.4l1.42-1.42A3.96 3.96 0 0 1 8 12c0-2.21 1.79-4 4-4s4 1.79 4 4c0 1.19-.53 2.25-1.36 2.98l1.42 1.42A5.96 5.96 0 0 0 18 12c0-3.31-2.69-6-6-6m0-4C6.48 2 2 6.48 2 12c0 2.85 1.2 5.41 3.11 7.24l1.42-1.42A8 8 0 0 1 4 12c0-4.41 3.59-8 8-8s8 3.59 8 8c0 2.29-.98 4.36-2.53 5.82l1.42 1.42C20.8 17.41 22 14.85 22 12c0-5.52-4.48-10-10-10"/></svg>

<svg width="24" height="24" viewBox="0 0 24 24" xmlns="http://www.w3.org/2000/svg" fill='currentColor'><path d="M14 12C14 12.74 13.6 13.38 13 13.72V22H11V13.72C10.4 13.37 10 12.74 10 12C10 10.9 10.9 10 12 10C13.1 10 14 10.9 14 12ZM12 6C8.69 6 6 8.69 6 12C6 13.74 6.75 15.31 7.94 16.4L9.36 14.98C8.53 14.25 8 13.19 8 12C8 9.79 9.79 8 12 8C14.21 8 16 9.79 16 12C16 13.19 15.47 14.25 14.64 14.98L16.06 16.4C17.25 15.31 18 13.74 18 12C18 8.69 15.31 6 12 6ZM12 2C6.48 2 2 6.48 2 12C2 14.85 3.2 17.41 5.11 19.24L6.53 17.82C4.98 16.36 4 14.29 4 12C4 7.59 7.59 4 12 4C16.41 4 20 7.59 20 12C20 14.29 19.02 16.36 17.47 17.82L18.89 19.24C20.8 17.41 22 14.85 22 12C22 6.48 17.52 2 12 2Z"/></svg>
